products/org.csstudio.iter.css.product/SymbolLibrary_quad_hd/SVG/Electrical/Starters/GS Starter Direct-on-line.svg

<?xml version="1.0" encoding="UTF-8"?>
<!--
/*******************************************************************************
* Copyright (c) 2010-2016 ITER Organization.
* All rights reserved. This program and the accompanying materials
* are made available under the terms of the Eclipse Public License v1.0
* which accompanies this distribution, and is available at
* http://www.eclipse.org/legal/epl-v10.html
******************************************************************************/
-->
<svg xmlns="http://www.w3.org/2000/svg" xmlns:xlink="http://www.w3.org/1999/xlink" width="68pt" height="131pt" viewBox="0 0 68 131" version="1.1">
<g id="surface1">
<path style=" stroke:none;fill-rule:evenodd;fill:rgb(100%,100%,100%);fill-opacity:1;" d="M 1.890625 1.355469 L 1.929688 1.355469 L 1.929688 1.433594 L 1.890625 1.433594 Z "/>
<path style=" stroke:none;fill-rule:evenodd;fill:rgb(100%,100%,100%);fill-opacity:1;" d="M 66.101563 129.324219 L 66.140625 129.324219 L 66.140625 129.402344 L 66.101563 129.402344 Z "/>
<path style="fill-rule:evenodd;fill:rgb(100%,100%,100%);fill-opacity:1;stroke-width:1;stroke-linecap:round;stroke-linejoin:round;stroke:rgb(0%,0%,0%);stroke-opacity:1;stroke-miterlimit:3;" d="M 0.000919451 35.455803 L 34.015637 35.455803 L 34.015637 69.47132 L 0.000919451 69.47132 Z " transform="matrix(1.888888,0,0,1.882183,1.888888,-33.367131)"/>
<path style="fill:none;stroke-width:1;stroke-linecap:round;stroke-linejoin:round;stroke:rgb(0%,0%,0%);stroke-opacity:1;stroke-miterlimit:3;" d="M 34.019773 60.959152 L 17.010346 69.470295 L 0.000919451 60.959152 " transform="matrix(1.888888,0,0,1.882183,1.888888,-81.376921)"/>
<path style="fill:none;stroke-width:1;stroke-linecap:round;stroke-linejoin:round;stroke:rgb(0%,0%,0%);stroke-opacity:1;stroke-miterlimit:3;" d="M 0.000779103 69.470519 L 25.509749 69.470519 " transform="matrix(1.888888,0,0,1.882183,9.920403,-65.0375)"/>
<path style="fill:none;stroke-width:1;stroke-linecap:round;stroke-linejoin:round;stroke:rgb(0%,0%,0%);stroke-opacity:1;stroke-miterlimit:3;" d="M -0.000451657 69.469493 L 7.440268 69.469493 " transform="matrix(1.888888,0,0,1.882183,42.715697,-56.367599)"/>
<path style="fill:none;stroke-width:1;stroke-linecap:round;stroke-linejoin:round;stroke:rgb(0%,0%,0%);stroke-opacity:1;stroke-miterlimit:3;" d="M -0.00030312 69.469303 L 14.260752 69.469413 " transform="matrix(1.689472,-0.841739,0.844738,1.683475,-40.72972,-30.559479)"/>
<path style="fill:none;stroke-width:1;stroke-linecap:round;stroke-linejoin:round;stroke:rgb(0%,0%,0%);stroke-opacity:1;stroke-miterlimit:3;" d="M 0.0000797354 69.469089 L 3.900357 69.469089 " transform="matrix(1.888888,0,0,1.882183,10.589693,-54.366839)"/>
<path style="fill:none;stroke-width:1;stroke-linecap:round;stroke-linejoin:round;stroke:rgb(0%,0%,0%);stroke-opacity:1;stroke-miterlimit:3;" d="M 0.000974612 67.369323 C 0.048539 68.54399 0.98535 69.467535 2.124826 69.467535 C 3.264303 69.467535 4.201114 68.54399 4.250746 67.369323 " transform="matrix(1.888888,0,0,1.882183,10.302847,-50.520164)"/>
</g>
</svg>

<?xml version="1.0" encoding="UTF-8" standalone="no"?>
<!--
/*******************************************************************************
* Copyright (c) 2010-2016 ITER Organization.
* All rights reserved. This program and the accompanying materials
* are made available under the terms of the Eclipse Public License v1.0
* which accompanies this distribution, and is available at
* http://www.eclipse.org/legal/epl-v10.html
******************************************************************************/
-->
<!--
/*******************************************************************************
* Copyright (c) 2010-2016 ITER Organization.
* All rights reserved. This program and the accompanying materials
* are made available under the terms of the Eclipse Public License v1.0
* which accompanies this distribution, and is available at
* http://www.eclipse.org/legal/epl-v10.html
******************************************************************************/
-->

<svg
   xmlns:dc="http://purl.org/dc/elements/1.1/"
   xmlns:cc="http://creativecommons.org/ns#"
   xmlns:rdf="http://www.w3.org/1999/02/22-rdf-syntax-ns#"
   xmlns:svg="http://www.w3.org/2000/svg"
   xmlns="http://www.w3.org/2000/svg"
   xmlns:sodipodi="http://sodipodi.sourceforge.net/DTD/sodipodi-0.dtd"
   xmlns:inkscape="http://www.inkscape.org/namespaces/inkscape"
   width="85.770767pt"
   height="128.04688pt"
   viewBox="0 0 85.770767 128.04688"
   version="1.1"
   id="svg2"
   inkscape:version="0.91 r13725"
   sodipodi:docname="OL_EE0404.svg">
  <metadata
     id="metadata27">
    <rdf:RDF>
      <cc:Work
         rdf:about="">
        <dc:format>image/svg+xml</dc:format>
        <dc:type
           rdf:resource="http://purl.org/dc/dcmitype/StillImage" />
        <dc:title></dc:title>
      </cc:Work>
    </rdf:RDF>
  </metadata>
  <defs
     id="defs25" />
  <sodipodi:namedview
     pagecolor="#ffffff"
     bordercolor="#666666"
     borderopacity="1"
     objecttolerance="10"
     gridtolerance="10"
     guidetolerance="10"
     inkscape:pageopacity="0"
     inkscape:pageshadow="2"
     inkscape:window-width="1366"
     inkscape:window-height="706"
     id="namedview23"
     showgrid="false"
     fit-margin-left="9.8"
     fit-margin-right="9.8"
     fit-margin-top="0"
     fit-margin-bottom="0"
     inkscape:zoom="1.4412214"
     inkscape:cx="53.582323"
     inkscape:cy="79.87793"
     inkscape:window-x="-8"
     inkscape:window-y="-8"
     inkscape:window-maximized="1"
     inkscape:current-layer="svg2" />
  <g
     id="surface1"
     transform="translate(8.8658586,-1.355469)">
    <path
       style="fill:#ffffff;fill-opacity:1;fill-rule:evenodd;stroke:none"
       d="m 1.890625,1.355469 0.039063,0 0,0.078125 -0.039063,0 z"
       id="path5"
       inkscape:connector-curvature="0" />
    <path
       style="fill:#ffffff;fill-opacity:1;fill-rule:evenodd;stroke:none"
       d="m 66.101563,129.32422 0.03906,0 0,0.0781 -0.03906,0 z"
       id="path7"
       inkscape:connector-curvature="0" />
    <path
       style="fill:#ffffff;fill-opacity:1;fill-rule:evenodd;stroke:#000000;stroke-width:1;stroke-linecap:round;stroke-linejoin:round;stroke-miterlimit:3;stroke-opacity:1"
       d="m 9.19451e-4,35.455803 34.014717549,0 0,34.015517 -34.014717549,0 z"
       transform="matrix(1.888888,0,0,1.882183,1.888888,-33.367131)"
       id="path9"
       inkscape:connector-curvature="0" />
    <path
       style="fill:none;stroke:#000000;stroke-width:1;stroke-linecap:round;stroke-linejoin:round;stroke-miterlimit:3;stroke-opacity:1"
       d="M 34.019773,60.959152 17.010346,69.470295 9.19451e-4,60.959152"
       transform="matrix(1.888888,0,0,1.882183,1.888888,-81.376921)"
       id="path11"
       inkscape:connector-curvature="0" />
    <path
       style="fill:none;stroke:#000000;stroke-width:1;stroke-linecap:round;stroke-linejoin:round;stroke-miterlimit:3;stroke-opacity:1"
       d="m 7.79103e-4,69.470519 25.508969897,0"
       transform="matrix(1.888888,0,0,1.882183,9.920403,-65.0375)"
       id="path13"
       inkscape:connector-curvature="0" />
    <path
       style="fill:none;stroke:#000000;stroke-width:1;stroke-linecap:round;stroke-linejoin:round;stroke-miterlimit:3;stroke-opacity:1"
       d="m -4.51657e-4,69.469493 7.440719657,0"
       transform="matrix(1.888888,0,0,1.882183,42.715697,-56.367599)"
       id="path15"
       inkscape:connector-curvature="0" />
    <path
       style="fill:none;stroke:#000000;stroke-width:1;stroke-linecap:round;stroke-linejoin:round;stroke-miterlimit:3;stroke-opacity:1"
       d="m -3.0312e-4,69.469303 14.26105512,1.1e-4"
       transform="matrix(1.689472,-0.841739,0.844738,1.683475,-40.72972,-30.559479)"
       id="path17"
       inkscape:connector-curvature="0" />
    <path
       style="fill:none;stroke:#000000;stroke-width:1;stroke-linecap:round;stroke-linejoin:round;stroke-miterlimit:3;stroke-opacity:1"
       d="m 7.97354e-5,69.469089 3.9002772646,0"
       transform="matrix(1.888888,0,0,1.882183,10.589693,-54.366839)"
       id="path19"
       inkscape:connector-curvature="0" />
    <path
       style="fill:none;stroke:#000000;stroke-width:1;stroke-linecap:round;stroke-linejoin:round;stroke-miterlimit:3;stroke-opacity:1"
       d="M 9.74612e-4,67.369323 C 0.048539,68.54399 0.98535,69.467535 2.124826,69.467535 c 1.139477,0 2.076288,-0.923545 2.12592,-2.098212"
       transform="matrix(1.888888,0,0,1.882183,10.302847,-50.520164)"
       id="path21"
       inkscape:connector-curvature="0" />
  </g>
</svg>
